localPackages/DesignSystem/Sources/DesignSystem/Resources/Assets.xcassets/IconSet/ic-heart.imageset/ic-heart.svg

<svg width="24" height="24" viewBox="0 0 24 24" fill="none" xmlns="http://www.w3.org/2000/svg">
<g id="ic-heart">
<path id="Icon" fill-rule="evenodd" clip-rule="evenodd" d="M10.7919 5.85423C9.00505 4.04654 6.10806 4.04654 4.32126 5.85423C2.57261 7.62332 2.52987 10.478 4.22475 12.2998L12 20.6576L19.7753 12.2998C21.4701 10.478 21.4274 7.62332 19.6787 5.85423C17.8919 4.04654 14.995 4.04654 13.2081 5.85423L12.5237 6.54671C12.2345 6.83931 11.7655 6.83931 11.4763 6.54671L10.7919 5.85423ZM3.27393 4.79466C5.63916 2.40178 9.47395 2.40178 11.8392 4.79466L12 4.95735L12.1608 4.79466C14.526 2.40178 18.3608 2.40178 20.7261 4.79466C23.0408 7.13644 23.0974 10.9152 20.8538 13.3268L12.5393 22.2643C12.3993 22.4147 12.2042 22.5 12 22.5C11.7958 22.5 11.6007 22.4147 11.4607 22.2643L3.14618 13.3268C0.902627 10.9152 0.959202 7.13644 3.27393 4.79466Z" fill="#0F0F0F"/>
</g>
</svg>

<svg xmlns="http://www.w3.org/2000/svg" width="24" height="24" viewBox="0 0 24 24">
  <g class="ic-heart">
    <path fill-rule="evenodd" d="M10.792 5.854a4.538 4.538 0 0 0-6.47 0 4.668 4.668 0 0 0-.097 6.446L12 20.658l7.775-8.358a4.668 4.668 0 0 0-.096-6.446 4.538 4.538 0 0 0-6.47 0l-.685.693a.735.735 0 0 1-1.048 0l-.684-.693Zm-7.518-1.06a6.007 6.007 0 0 1 8.565 0l.161.163.16-.162a6.007 6.007 0 0 1 8.566 0c2.315 2.341 2.371 6.12.128 8.532l-8.315 8.937a.737.737 0 0 1-1.078 0l-8.315-8.937C.903 10.915.96 7.137 3.274 4.795Z" class="Icon"/>
  </g>
</svg>
